packages/icons/src/svg/smiley-angry.svg

<svg xmlns="http://www.w3.org/2000/svg" viewBox="0 0 16 16">
  <g fill-rule="nonzero">
    <path d="M8.0828,9.3914 C7.1178,9.3914 6.0138,9.6984 4.9018,10.5374 C4.6508,10.7254 4.6018,11.0794 4.7908,11.3304 C4.9778,11.5804 5.3338,11.6304 5.5838,11.4424 C6.5238,10.7394 7.3598,10.5284 8.0828,10.5264 C8.8048,10.5264 9.4238,10.7494 9.8648,10.9774 C10.0838,11.0914 10.2568,11.2054 10.3728,11.2884 C10.4298,11.3304 10.4728,11.3644 10.4998,11.3844 C10.5128,11.3974 10.5218,11.4054 10.5278,11.4094 C10.7648,11.6204 11.1228,11.6024 11.3328,11.3694 C11.5408,11.1354 11.5218,10.7764 11.2888,10.5674 C11.2378,10.5314 10.0018,9.4034 8.0828,9.3914"/>
    <path d="M12.8558,12.8552 C11.6108,14.0992 9.8978,14.8662 7.9998,14.8662 C6.1018,14.8662 4.3898,14.0992 3.1448,12.8552 C1.9008,11.6112 1.1338,9.8982 1.1338,8.0002 C1.1338,6.1032 1.9008,4.3902 3.1448,3.1452 C4.3898,1.9012 6.1018,1.1332 7.9998,1.1332 C9.8978,1.1332 11.6108,1.9012 12.8558,3.1452 C14.0988,4.3902 14.8658,6.1032 14.8658,8.0002 C14.8658,9.8982 14.0988,11.6112 12.8558,12.8552 M7.9998,0.0002 C3.5808,0.0002 -0.0002,3.5822 -0.0002,8.0002 C-0.0002,12.4182 3.5808,16.0002 7.9998,16.0002 C12.4188,16.0002 15.9998,12.4182 15.9998,8.0002 C15.9998,3.5822 12.4188,0.0002 7.9998,0.0002"/>
    <path d="M5.5731 7.7371C6.2361 7.7371 6.7731 7.1991 6.7731 6.5371 6.7731 6.5501 4.8061 5.6331 4.8061 5.6331 4.5471 5.8531 4.3731 6.1701 4.3731 6.5371 4.3731 7.1991 4.9101 7.7371 5.5731 7.7371M9.3162 6.5369C9.3162 7.1989 9.8532 7.7369 10.5162 7.7369 11.1792 7.7369 11.7162 7.1989 11.7162 6.5369 11.7162 6.1739 11.5462 5.8579 11.2912 5.6389 11.2912 5.6389 9.3072 6.5369 9.3162 6.5369"/>
  </g>
</svg>

<svg xmlns="http://www.w3.org/2000/svg" viewBox="0 0 16 16">
  <path d="M8.083 9.391c-.965 0-2.07.307-3.181 1.146a.566.566 0 1 0 .682.905c.94-.703 1.776-.914 2.499-.916a3.91 3.91 0 0 1 1.782.451c.219.114.392.228.508.311l.127.096a.57.57 0 0 0 .833-.015.57.57 0 0 0-.044-.802c-.051-.036-1.287-1.164-3.206-1.176"/>
  <path d="M12.856 12.855A6.842 6.842 0 0 1 8 14.866a6.84 6.84 0 0 1-4.855-2.01A6.837 6.837 0 0 1 1.134 8a6.84 6.84 0 0 1 2.01-4.855A6.84 6.84 0 0 1 8 1.133c1.898 0 3.61.768 4.856 2.012A6.844 6.844 0 0 1 14.866 8a6.84 6.84 0 0 1-2.01 4.855M8 0a8 8 0 0 0-8 8 8 8 0 0 0 8 8 8 8 0 0 0 8-8 8 8 0 0 0-8-8"/>
  <path d="M5.573 7.737a1.2 1.2 0 0 0 1.2-1.2c0 .013-1.967-.904-1.967-.904-.259.22-.433.537-.433.904a1.2 1.2 0 0 0 1.2 1.2m3.743-1.2a1.2 1.2 0 0 0 2.4 0c0-.363-.17-.68-.425-.898 0 0-1.984.898-1.975.898"/>
</svg>
